X:18696
T:Whiskey Before Breakfast
C:Andy De Jarlis
M:2/4
L:1/16
K:D
FE|D2FD A2AA|ABAG F2DF|GABG FFAF|EDEF EGFE|!
D2FD A2AA|ABAG F2DF|GABG FFAF|EDEF D2:|!
|:A2|d3d d2Bc|dBAG F2D2|e3e e2ef|gfed c2Ac|!
defd ce2e|ABAG F2DF|GABG FFAF|EDEF D2:|!


